src/assets/Icons/Services2.svg

<svg width="80" height="80" viewBox="0 0 80 80" fill="none" xmlns="http://www.w3.org/2000/svg">
<path opacity="0.3" d="M80 40C80 62.0914 62.0914 80 40 80C17.9086 80 0 62.0914 0 40C0 17.9086 17.9086 0 40 0C62.0914 0 80 17.9086 80 40ZM10.9071 40C10.9071 56.0675 23.9325 69.0929 40 69.0929C56.0675 69.0929 69.0929 56.0675 69.0929 40C69.0929 23.9325 56.0675 10.9071 40 10.9071C23.9325 10.9071 10.9071 23.9325 10.9071 40Z" fill="#2F2E30"/>
<circle cx="40" cy="40" r="29" fill="black"/>
<path d="M31.667 31.6667V28.3334C31.667 27.3682 31.9464 26.4236 32.4714 25.6137C32.9965 24.8038 33.7447 24.1632 34.6258 23.7691C35.5069 23.3751 36.4832 23.2445 37.4369 23.3931C38.3906 23.5418 39.2809 23.9633 40.0003 24.6067C40.7197 23.9633 41.61 23.5418 42.5637 23.3931C43.5174 23.2445 44.4937 23.3751 45.3748 23.7691C46.256 24.1632 47.0042 24.8038 47.5292 25.6137C48.0543 26.4236 48.3336 27.3682 48.3337 28.3334V31.6667H50.8337C51.4967 31.6667 52.1326 31.9301 52.6014 32.399C53.0703 32.8678 53.3337 33.5037 53.3337 34.1667V50.8417C53.3337 52.3866 52.72 53.8682 51.6276 54.9606C50.5352 56.053 49.0535 56.6667 47.5087 56.6667H33.3337C31.5655 56.6667 29.8699 55.9643 28.6196 54.7141C27.3694 53.4639 26.667 51.7682 26.667 50.0001V34.1667C26.667 33.5037 26.9304 32.8678 27.3992 32.399C27.8681 31.9301 28.504 31.6667 29.167 31.6667H31.667ZM42.7253 54.1667C42.0454 53.1914 41.6818 52.0306 41.6837 50.8417V34.1667H29.167V50.0001C29.167 50.5472 29.2748 51.089 29.4842 51.5946C29.6936 52.1001 30.0005 52.5594 30.3874 52.9463C30.7743 53.3332 31.2336 53.6402 31.7391 53.8496C32.2447 54.0589 32.7865 54.1667 33.3337 54.1667H42.7253ZM39.167 31.6667V28.3334C39.167 27.6703 38.9036 27.0345 38.4348 26.5656C37.9659 26.0968 37.33 25.8334 36.667 25.8334C36.004 25.8334 35.3681 26.0968 34.8992 26.5656C34.4304 27.0345 34.167 27.6703 34.167 28.3334V31.6667H39.167ZM41.667 31.6667H45.8337V28.3334C45.8337 27.8188 45.6749 27.3167 45.379 26.8957C45.0832 26.4746 44.6645 26.1552 44.1803 25.9809C43.6961 25.8066 43.1699 25.786 42.6736 25.9219C42.1772 26.0577 41.7349 26.3435 41.407 26.7401C41.5753 27.2401 41.667 27.7767 41.667 28.3334V31.6667ZM44.1837 50.8417C44.1837 51.7236 44.534 52.5693 45.1575 53.1929C45.7811 53.8164 46.6268 54.1667 47.5087 54.1667C48.3905 54.1667 49.2362 53.8164 49.8598 53.1929C50.4833 52.5693 50.8337 51.7236 50.8337 50.8417V34.1667H44.1837V50.8417Z" fill="white"/>
</svg>

<svg xmlns="http://www.w3.org/2000/svg" width="80" height="80" fill="none" xmlns:v="https://vecta.io/nano"><path opacity=".3" d="M80 40c0 22.091-17.909 40-40 40S0 62.091 0 40 17.909 0 40 0s40 17.909 40 40zm-69.093 0c0 16.068 13.025 29.093 29.093 29.093S69.093 56.068 69.093 40 56.068 10.907 40 10.907 10.907 23.933 10.907 40z" fill="#2f2e30"/><circle cx="40" cy="40" r="29" fill="#000"/><path d="M31.667 31.667v-3.333a5 5 0 0 1 2.959-4.564 5 5 0 0 1 5.375.838 5 5 0 0 1 5.374-.838 5 5 0 0 1 2.959 4.564v3.333h2.5a2.5 2.5 0 0 1 2.5 2.5v16.675c0 1.545-.614 3.026-1.706 4.119s-2.574 1.706-4.119 1.706H33.334c-1.768 0-3.464-.702-4.714-1.953S26.667 51.768 26.667 50V34.167a2.5 2.5 0 0 1 2.5-2.5h2.5zm11.058 22.5a5.8 5.8 0 0 1-1.042-3.325V34.167H29.167V50c0 .547.108 1.089.317 1.594s.516.965.903 1.352.846.694 1.352.903a4.17 4.17 0 0 0 1.595.317h9.392zm-3.558-22.5v-3.333a2.5 2.5 0 0 0-2.5-2.5 2.5 2.5 0 0 0-2.5 2.5v3.333h5zm2.5 0h4.167v-3.333a2.5 2.5 0 0 0-1.653-2.353 2.5 2.5 0 0 0-2.773.759 4.99 4.99 0 0 1 .26 1.593v3.333zm2.517 19.175c0 .882.35 1.728.974 2.351s1.469.974 2.351.974 1.727-.35 2.351-.974.974-1.469.974-2.351V34.167h-6.65v16.675z" fill="#fff"/></svg>
